main/svg/leaves4a.svg

<svg xmlns="http://www.w3.org/2000/svg" width="32" height="32"><path d="M14 10c-2 2-2.895 2-4 2-1.102 0-2 0-4-2 2-2 2.898-2 4-2 1.105 0 2 0 4 2Zm12 12c-2 2-2.898 2-4 2-1.101 0-2 0-4-2 2-2 2.895-2 4-2 1.102 0 2 0 4 2Zm-16-4c2 2 2 2.895 2 4 0 1.102 0 2-2 4-2-2-2-2.898-2-4 0-1.105 0-2 2-4ZM22 6c2 2 2 2.898 2 4 0 1.105 0 2-2 4-2-2-2-2.895-2-4 0-1.102 0-2 2-4Zm0 0" style="stroke:none;fill-rule:nonzero;fill:#000;fill-opacity:1"/></svg>

<svg xmlns="http://www.w3.org/2000/svg" width="32" height="32"><path d="M14 10c-2 2-2.895 2-4 2-1.102 0-2.004 0-4.004-2.004C8 8 8.898 8 10 8c1.105 0 2 0 4 2Zm12.004 11.996C24 24 23.102 24 21.996 24c-1.101 0-1.996 0-4-2.004C20 20 20.895 20 22 20c1.102 0 2 0 4 2Zm-16.004-4C12 20 12 20.895 12 22c0 1.102 0 2-2.004 4C8 24 8 23.102 8 22c0-1.105 0-2.004 2-4.004Zm11.996-12C24 8 24 8.898 24 10c0 1.105 0 2-2.004 4C20 12 20 11.105 20 10c0-1.102 0-2.004 2-4.004Zm0 0" style="stroke:none;fill-rule:nonzero;fill:#000;fill-opacity:1"/></svg>
